X:1
T:Backwoodsman
M:6/8
L:1/4
K:C
 F G/2| A A/2 A G/2| E3/2 C D/2| E E/2 D E/2| D3/2 z A/2| A A/2 G A/2|\
 d3/2 A A/2| d d/2 c A/2| G3/2 z G/2| A A/2 A A/2| d3/2 A A/2| d d/2 c A/2|\
 G3/2 z G/4G/4| A A/2 A G/2| E D/2 C D/2| E E/2 D D/2| D3/2||
